static/img/kroki/0f6bae54e5acb5ed269d018298f8a5ce.svg

<?xml version="1.0" encoding="us-ascii" standalone="no"?><svg xmlns="http://www.w3.org/2000/svg" xmlns:xlink="http://www.w3.org/1999/xlink" contentStyleType="text/css" height="152px" preserveAspectRatio="none" style="width:288px;height:152px;" version="1.1" viewBox="0 0 288 152" width="288px" zoomAndPan="magnify"><defs/><g><!--class aws_acm_certificate--><g id="elem_aws_acm_certificate"><rect codeLine="23" fill="#3D176E" height="39.7891" id="aws_acm_certificate" rx="2.5" ry="2.5" style="stroke:#000D19;stroke-width:0.5;" width="211" x="38.5" y="106.79"/><ellipse cx="53.5" cy="126.6845" fill="#ADD1B2" rx="11" ry="11" style="stroke:#181818;stroke-width:1.0;"/><path d="M56.4688,132.3252 Q55.8906,132.622 55.25,132.7627 Q54.6094,132.9189 53.9063,132.9189 Q51.4063,132.9189 50.0781,131.2783 Q48.7656,129.622 48.7656,126.497 Q48.7656,123.372 50.0781,121.7158 Q51.4063,120.0595 53.9063,120.0595 Q54.6094,120.0595 55.25,120.2158 Q55.9063,120.372 56.4688,120.6689 L56.4688,123.3877 Q55.8438,122.8095 55.25,122.5439 Q54.6563,122.2627 54.0313,122.2627 Q52.6875,122.2627 52,123.3408 Q51.3125,124.4033 51.3125,126.497 Q51.3125,128.5908 52,129.6689 Q52.6875,130.7314 54.0313,130.7314 Q54.6563,130.7314 55.25,130.4658 Q55.8438,130.1845 56.4688,129.6064 L56.4688,132.3252 Z " fill="#000000"/><text fill="#D9B8FF" font-family="Helvetica" font-size="17" lengthAdjust="spacing" textLength="169" x="72.5" y="132.5698">aws_acm_certificate</text></g><!--class aws_cloudfront_distribution--><g id="elem_aws_cloudfront_distribution"><rect codeLine="26" fill="#3D176E" height="39.7891" id="aws_cloudfront_distribution" rx="2.5" ry="2.5" style="stroke:#000D19;stroke-width:0.5;" width="274" x="7" y="7"/><ellipse cx="22" cy="26.8945" fill="#ADD1B2" rx="11" ry="11" style="stroke:#181818;stroke-width:1.0;"/><path d="M24.9688,32.5352 Q24.3906,32.832 23.75,32.9727 Q23.1094,33.1289 22.4063,33.1289 Q19.9063,33.1289 18.5781,31.4883 Q17.2656,29.832 17.2656,26.707 Q17.2656,23.582 18.5781,21.9258 Q19.9063,20.2695 22.4063,20.2695 Q23.1094,20.2695 23.75,20.4258 Q24.4063,20.582 24.9688,20.8789 L24.9688,23.5977 Q24.3438,23.0195 23.75,22.7539 Q23.1563,22.4727 22.5313,22.4727 Q21.1875,22.4727 20.5,23.5508 Q19.8125,24.6133 19.8125,26.707 Q19.8125,28.8008 20.5,29.8789 Q21.1875,30.9414 22.5313,30.9414 Q23.1563,30.9414 23.75,30.6758 Q24.3438,30.3945 24.9688,29.8164 L24.9688,32.5352 Z " fill="#000000"/><text fill="#D9B8FF" font-family="Helvetica" font-size="17" lengthAdjust="spacing" textLength="232" x="41" y="32.7798">aws_cloudfront_distribution</text></g><!--link aws_cloudfront_distribution to aws_acm_certificate--><g id="link_aws_cloudfront_distribution_aws_acm_certificate"><path codeLine="29" d="M144,47.22 C144,64.36 144,83.27 144,100.41 " fill="none" id="aws_cloudfront_distribution-to-aws_acm_certificate" style="stroke:#1A83AF;stroke-width:2.0;"/><polygon fill="#1A83AF" points="144,106.41,148,97.41,144,101.41,140,97.41,144,106.41" style="stroke:#1A83AF;stroke-width:2.0;"/></g><!--SRC=[XP9FIyD04CNl-HGBFHSQYwQz2B5Gz5B4UXC9qztPTaco6sQdXYf-TnEZiYRzSvttOzvxm-oCGe5bnGTHOhb1yf7FZQs0e1GfaQiNhd0aHbg3dYPzSUaiNmHMKAAun-8DsKZe4yyx8tEBtekhGBe3cM_9xQtgrZE1zOs4bWDgKO3tAJEPpPun2AFccvdMVRA_T3HLSNA30yoHGlf19fE9YkTzvABLsTv_nDgyeuZ3ewqSuo3cmEAREfko9OAGWwA_-icCZw2KiLjn7SoUkanaaVxDrpjGhcvf3OKFRJmZeUD3XOj1AvpFb4wEmW-du4YsfnDG-mnacKaaDhe9pYW-ekWpa6NXzafJKp5JndSVOfpji7F0-6KKfxDfkdmTtnupYhu0]--></g></svg>

<svg xmlns="http://www.w3.org/2000/svg" width="288" height="152" viewBox="0 0 288 152"><rect width="211" height="39.789" x="38.5" y="106.79" fill="#3D176E" rx="2.5" ry="2.5" style="stroke:#000d19;stroke-width:.5"/><circle cx="53.5" cy="126.684" r="11" fill="#ADD1B2" style="stroke:#181818;stroke-width:1"/><path d="M56.469 132.325q-.578.297-1.219.438-.64.156-1.344.156-2.5 0-3.828-1.64-1.312-1.657-1.312-4.782t1.312-4.781q1.328-1.656 3.828-1.656.703 0 1.344.156.656.156 1.219.453v2.719q-.625-.579-1.219-.844-.594-.281-1.219-.281-1.343 0-2.031 1.078-.687 1.062-.687 3.156t.687 3.172q.688 1.062 2.031 1.062.625 0 1.219-.265.594-.281 1.219-.86z"/><text x="72.5" y="132.57" fill="#D9B8FF" font-family="Helvetica" font-size="17" textLength="169">aws_acm_certificate</text><rect width="274" height="39.789" x="7" y="7" fill="#3D176E" rx="2.5" ry="2.5" style="stroke:#000d19;stroke-width:.5"/><circle cx="22" cy="26.895" r="11" fill="#ADD1B2" style="stroke:#181818;stroke-width:1"/><path d="M24.969 32.535q-.578.297-1.219.438-.64.156-1.344.156-2.5 0-3.828-1.64-1.312-1.657-1.312-4.782t1.312-4.781q1.328-1.656 3.828-1.656.703 0 1.344.156.656.156 1.219.453v2.719q-.625-.578-1.219-.844-.594-.281-1.219-.281-1.343 0-2.031 1.078-.687 1.062-.687 3.156t.687 3.172q.688 1.062 2.031 1.062.625 0 1.219-.265.594-.281 1.219-.86z"/><text x="41" y="32.78" fill="#D9B8FF" font-family="Helvetica" font-size="17" textLength="232">aws_cloudfront_distribution</text><path fill="none" d="M144 47.22v53.19" style="stroke:#1a83af;stroke-width:2"/><path fill="#1A83AF" d="m144 106.41 4-9-4 4-4-4z" style="stroke:#1a83af;stroke-width:2"/></svg>
